X: 36200
T: Scottish Urbaine
R: barndance
M: 4/4
K: Dmixolydian
|:Ad-dc d2 ce|fd fg a2 fa|gf ed c2 cd|eg ed c2 A2|
Ad-dc d2 ce|fd fg a2 fa|gf ed c2 cd|eg ec d4:|
|:f2 d g2 e a2-|ab a^g a2 fa|gf ed c2 cd|eg ed c2 A2|
f2 d g2 e a2-|ab a^g a2 fa|gf ed c2 cd|eg ec d4:|

